www/assets/icons/present_to_all.svg

<svg xmlns="http://www.w3.org/2000/svg" width="24" height="24" viewBox="0 0 24 24" fill='currentColor'><path d="M21 3H3c-1.11 0-2 .89-2 2v14c0 1.11.89 2 2 2h18c1.11 0 2-.89 2-2V5c0-1.11-.89-2-2-2m0 16.02H3V4.98h18zM10 12H8l4-4 4 4h-2v4h-4z"/></svg>

<svg width="24" height="24" viewBox="0 0 24 24" xmlns="http://www.w3.org/2000/svg" fill='currentColor'><path d="M21 3H3C1.89 3 1 3.89 1 5V19C1 20.11 1.89 21 3 21H21C22.11 21 23 20.11 23 19V5C23 3.89 22.11 3 21 3ZM21 19.02H3V4.98H21V19.02ZM10 12H8L12 8L16 12H14V16H10V12Z"/></svg>
